assets/svg/logos/legalbox_white.svg

<svg width="1920" height="447" viewBox="0 0 1920 447" fill="none" xmlns="http://www.w3.org/2000/svg">
<path d="M477.791 280.59H550.741V315.8H460.911C453.612 315.8 446.612 312.901 441.451 307.74C436.29 302.579 433.391 295.579 433.391 288.28V94.4302H477.791V280.59Z" fill="white"/>
<path d="M740.999 241.27H612.579C613.626 253.937 618.066 263.873 625.899 271.08C633.732 278.287 643.352 281.88 654.759 281.86C671.252 281.86 682.986 274.777 689.959 260.61H737.849C732.923 277.32 722.678 291.965 708.669 302.32C694.289 313.207 676.622 318.65 655.669 318.65C638.749 318.65 623.579 314.897 610.159 307.39C596.846 300.007 585.943 288.942 578.759 275.52C571.279 261.78 567.539 245.94 567.539 228C567.539 209.813 571.239 193.85 578.639 180.11C585.685 166.733 596.488 155.707 609.719 148.39C623.052 140.99 638.386 137.29 655.719 137.29C672.386 137.29 687.346 140.887 700.599 148.08C713.608 155.074 724.297 165.708 731.359 178.68C738.646 191.9 742.292 207.07 742.299 224.19C742.329 229.909 741.894 235.621 740.999 241.27ZM696.299 211.45C696.099 200.037 691.979 190.887 683.939 184C675.899 177.113 666.066 173.677 654.439 173.69C643.446 173.69 634.196 177.023 626.689 183.69C619.182 190.357 614.586 199.61 612.899 211.45H696.299Z" fill="white"/>
<path d="M878 145C887.357 149.687 895.417 156.603 901.47 165.14V140.1H946.19V317.1C946.19 333.38 942.914 347.917 936.36 360.71C929.753 373.55 919.492 384.145 906.87 391.16C893.75 398.66 877.89 402.413 859.29 402.42C834.344 402.42 813.89 396.603 797.93 384.97C781.97 373.337 772.93 357.48 770.81 337.4H814.89C817.224 345.4 822.247 351.797 829.96 356.59C837.674 361.383 847.02 363.75 858 363.69C870.9 363.69 881.367 359.83 889.4 352.11C897.434 344.39 901.434 332.707 901.4 317.06V289.79C895.687 298.03 887.814 304.9 877.78 310.4C867.747 315.9 856.277 318.65 843.37 318.65C829.027 318.779 814.943 314.818 802.77 307.23C790.51 299.617 780.844 288.887 773.77 275.04C766.697 261.193 763.157 245.283 763.15 227.31C763.15 209.55 766.69 193.8 773.77 180.06C780.85 166.32 790.47 155.747 802.63 148.34C814.913 140.905 829.034 137.059 843.39 137.24C856.537 137.24 868.074 139.827 878 145ZM895.13 200.19C891.199 192.783 885.263 186.632 878 182.44C870.972 178.354 862.98 176.217 854.85 176.25C846.689 176.171 838.663 178.333 831.646 182.499C824.628 186.666 818.888 192.677 815.05 199.88C810.717 207.6 808.55 216.743 808.55 227.31C808.55 237.877 810.717 247.127 815.05 255.06C819.002 262.586 824.932 268.892 832.2 273.3C839.03 277.458 846.874 279.652 854.87 279.64C862.992 279.668 870.975 277.535 878 273.46C885.262 269.262 891.197 263.108 895.13 255.7C899.364 247.98 901.477 238.73 901.47 227.95C901.464 217.17 899.357 207.92 895.15 200.2L895.13 200.19Z" fill="white"/>
<path d="M988.86 180.06C995.954 166.32 1005.57 155.747 1017.72 148.34C1030 140.905 1044.12 137.059 1058.48 137.24C1071.59 137.24 1083.06 139.883 1092.89 145.17C1102.16 149.988 1110.23 156.822 1116.51 165.17V140.1H1161.23V315.8H1116.51V290.11C1110.81 298.35 1102.94 305.167 1092.89 310.56C1082.84 315.953 1071.27 318.65 1058.16 318.65C1043.87 318.791 1029.83 314.828 1017.72 307.23C1005.56 299.623 995.94 288.88 988.86 275C981.78 261.12 978.24 245.21 978.24 227.27C978.24 209.537 981.78 193.8 988.86 180.06ZM1110.17 200.2C1106.24 192.793 1100.31 186.639 1093.05 182.44C1086.02 178.354 1078.02 176.217 1069.89 176.25C1061.73 176.171 1053.7 178.333 1046.69 182.499C1039.67 186.666 1033.93 192.677 1030.09 199.88C1025.76 207.6 1023.6 216.743 1023.59 227.31C1023.58 237.877 1025.75 247.127 1030.09 255.06C1034.04 262.584 1039.96 268.889 1047.22 273.3C1054.05 277.458 1061.89 279.652 1069.89 279.64C1078.02 279.672 1086.02 277.539 1093.05 273.46C1100.31 269.259 1106.24 263.105 1110.17 255.7C1114.4 247.98 1116.52 238.73 1116.51 227.95C1116.5 217.17 1114.39 207.92 1110.17 200.2Z" fill="white"/>
<path d="M1249.08 81.1099V315.8H1233.08C1229.35 315.8 1225.65 315.064 1222.2 313.635C1218.75 312.205 1215.61 310.11 1212.97 307.469C1210.33 304.828 1208.24 301.693 1206.81 298.243C1205.38 294.792 1204.65 291.094 1204.65 287.36V81.1099H1249.08Z" fill="white"/>
<path d="M1360.87 145.17C1370.91 139.89 1382.38 137.246 1395.28 137.24C1409.64 137.061 1423.76 140.906 1436.04 148.34C1448.19 155.746 1457.81 166.266 1464.9 179.9C1471.99 193.533 1475.53 209.336 1475.52 227.31C1475.52 245.31 1471.98 261.22 1464.9 275.04C1457.82 288.86 1448.19 299.59 1436 307.23C1423.79 314.857 1409.64 318.821 1395.24 318.65C1382.13 318.65 1370.66 316.06 1360.83 310.88C1351.48 306.117 1343.39 299.217 1337.21 290.74V315.8H1325.53C1316.85 315.797 1308.53 312.348 1302.39 306.21C1296.26 300.072 1292.81 291.749 1292.81 283.07V81.0698H1337.21V165.75C1343.25 157.02 1351.39 149.945 1360.87 145.17ZM1423.67 199.88C1419.7 192.541 1413.77 186.448 1406.54 182.28C1399.54 178.29 1391.6 176.22 1383.54 176.28C1375.56 176.263 1367.73 178.402 1360.86 182.47C1353.62 186.756 1347.7 192.952 1343.74 200.38C1339.4 208.213 1337.23 217.413 1337.24 227.98C1337.25 238.546 1339.41 247.743 1343.74 255.57C1347.7 262.997 1353.62 269.195 1360.86 273.49C1368.64 278.082 1377.62 280.202 1386.63 279.57C1391.62 279.252 1396.52 278.078 1401.11 276.1C1410.78 271.91 1418.73 264.557 1423.66 255.25C1427.99 247.43 1430.15 238.126 1430.16 227.34C1430.17 216.753 1428 207.6 1423.67 199.88Z" fill="white"/>
<path d="M1540.22 307.39C1526.79 299.997 1515.74 288.946 1508.34 275.52C1500.62 261.78 1496.76 245.924 1496.77 227.95C1496.78 209.977 1500.74 194.117 1508.66 180.37C1516.3 166.913 1527.56 155.871 1541.17 148.5C1554.91 141 1570.24 137.247 1587.17 137.24C1604.1 137.234 1619.43 140.987 1633.17 148.5C1646.77 155.874 1658.04 166.915 1665.68 180.37C1673.59 194.124 1677.54 210 1677.54 228C1677.54 246 1673.47 261.857 1665.33 275.57C1657.48 289.031 1646.06 300.06 1632.33 307.44C1618.48 314.947 1602.99 318.7 1585.86 318.7C1568.97 318.667 1553.75 314.897 1540.22 307.39ZM1608.56 274.09C1615.82 270.009 1621.73 263.89 1625.56 256.49C1629.79 248.67 1631.91 239.157 1631.9 227.95C1631.9 211.284 1627.51 198.437 1618.74 189.41C1614.6 185.054 1609.6 181.605 1604.06 179.284C1598.52 176.964 1592.56 175.822 1586.55 175.93C1573.88 175.93 1563.26 180.424 1554.68 189.41C1546.1 198.397 1541.81 211.26 1541.8 228C1541.8 244.7 1545.98 257.544 1554.33 266.53C1562.68 275.517 1573.2 280.007 1585.88 280C1593.82 280.016 1601.63 277.98 1608.56 274.09Z" fill="white"/>
<path d="M1807.25 315.8L1771.1 261.25L1739.1 315.8H1691.53L1748.93 227.63L1690.93 140.1H1741L1776.83 194.33L1809.18 140.1H1856.75L1799 227.63L1857.36 315.8H1807.25Z" fill="white"/>
<path d="M226 212.49V360.09C225.997 362.653 225.33 365.171 224.062 367.399C222.794 369.626 220.969 371.486 218.767 372.796C216.564 374.107 214.059 374.823 211.497 374.874C208.935 374.926 206.403 374.311 204.15 373.09L82.6096 307.21C76.5642 303.937 71.5148 299.092 67.9946 293.186C64.4743 287.281 62.6139 280.535 62.6096 273.66V140.78C62.5952 137.004 63.3399 133.263 64.7996 129.78C65.7996 127.29 67.1796 124.84 68.4996 124.18C71.4696 122.72 226 212.49 226 212.49Z" fill="#377DFF"/>
<path d="M68.5293 124.19L204.879 50.0001C211.55 46.3709 219.044 44.5256 226.637 44.643C234.23 44.7603 241.664 46.8364 248.219 50.6701L359.839 116C362.113 117.329 363.99 119.241 365.276 121.539C366.563 123.837 367.212 126.436 367.157 129.069C367.102 131.702 366.344 134.272 364.963 136.514C363.581 138.755 361.626 140.587 359.299 141.82L225.999 212.49" fill="white"/>
</svg>

<svg id="Capa_1" data-name="Capa 1" xmlns="http://www.w3.org/2000/svg" viewBox="0 0 1920 447"><defs><style>.cls-1{fill:#fff;}.cls-2{fill:#377dff;}.cls-3{fill:#36f1cd;}</style></defs><path class="cls-1" d="M477.79,280.59h72.95V315.8H460.91a27.52,27.52,0,0,1-27.52-27.52V94.43h44.4Z"/><path class="cls-1" d="M741,241.27H612.58q1.57,19,13.32,29.81t28.86,10.78q24.74,0,35.2-21.25h47.89a80,80,0,0,1-29.18,41.71q-21.57,16.33-53,16.33-25.38,0-45.51-11.26a79.16,79.16,0,0,1-31.4-31.87Q567.54,254.91,567.54,228q0-27.28,11.1-47.89a77.54,77.54,0,0,1,31.08-31.72q20-11.1,46-11.1,25,0,44.88,10.79a76,76,0,0,1,30.76,30.6q10.93,19.83,10.94,45.51A105.54,105.54,0,0,1,741,241.27ZM696.3,211.45Q696,194.33,683.94,184t-29.5-10.31q-16.49,0-27.75,10T612.9,211.45Z"/><path class="cls-1" d="M878,145a63.79,63.79,0,0,1,23.47,20.14V140.1h44.72v177q0,24.42-9.83,43.61a73.11,73.11,0,0,1-29.49,30.45q-19.68,11.25-47.58,11.26-37.42,0-61.36-17.45t-27.12-47.57h44.08q3.5,12,15.07,19.19T858,363.69q19.35,0,31.4-11.58t12-35.05V289.79q-8.57,12.36-23.62,20.61t-34.41,8.25a75.47,75.47,0,0,1-40.6-11.42q-18.39-11.42-29-32.19t-10.62-47.73q0-26.64,10.62-47.25t28.86-31.72a76.84,76.84,0,0,1,40.76-11.1Q863.11,137.24,878,145Zm17.13,55.19A44.69,44.69,0,0,0,878,182.44a45.69,45.69,0,0,0-23.15-6.19,44.61,44.61,0,0,0-39.8,23.63q-6.5,11.58-6.5,27.43t6.5,27.75A46.75,46.75,0,0,0,832.2,273.3a43.47,43.47,0,0,0,22.67,6.34A45.78,45.78,0,0,0,878,273.46a44.76,44.76,0,0,0,17.13-17.76q6.35-11.58,6.34-27.75T895.15,200.2Z"/><path class="cls-1" d="M988.86,180.06q10.64-20.61,28.86-31.72a76.84,76.84,0,0,1,40.76-11.1q19.66,0,34.41,7.93a69.91,69.91,0,0,1,23.62,20V140.1h44.72V315.8h-44.72V290.11q-8.55,12.36-23.62,20.45t-34.73,8.09a74.7,74.7,0,0,1-40.44-11.42Q999.48,295.82,988.86,275t-10.62-47.73Q978.24,200.67,988.86,180.06Zm121.31,20.14a44.74,44.74,0,0,0-17.12-17.76,45.73,45.73,0,0,0-23.16-6.19,44.61,44.61,0,0,0-39.8,23.63q-6.49,11.58-6.5,27.43t6.5,27.75a46.75,46.75,0,0,0,17.13,18.24,43.47,43.47,0,0,0,22.67,6.34,45.82,45.82,0,0,0,23.16-6.18,44.8,44.8,0,0,0,17.12-17.76q6.35-11.58,6.34-27.75T1110.17,200.2Z"/><path class="cls-1" d="M1249.08,81.11V315.8h-16a28.43,28.43,0,0,1-28.43-28.44V81.11Z"/><path class="cls-1" d="M1360.87,145.17q15.06-7.92,34.41-7.93a76.87,76.87,0,0,1,40.76,11.1q18.23,11.11,28.86,31.56t10.62,47.41q0,27-10.62,47.73T1436,307.23a75.27,75.27,0,0,1-40.76,11.42q-19.66,0-34.41-7.77a66.7,66.7,0,0,1-23.62-20.14V315.8h-11.68a32.73,32.73,0,0,1-32.72-32.73v-202h44.4v84.68A63.52,63.52,0,0,1,1360.87,145.17Zm62.8,54.71a45.08,45.08,0,0,0-17.13-17.6,45.78,45.78,0,0,0-23-6,44.3,44.3,0,0,0-22.68,6.19,45.85,45.85,0,0,0-17.12,17.91q-6.51,11.75-6.5,27.6t6.5,27.59a46,46,0,0,0,17.12,17.92,44.54,44.54,0,0,0,25.77,6.08,43.6,43.6,0,0,0,14.48-3.47,46.42,46.42,0,0,0,22.55-20.85q6.49-11.73,6.5-27.91Q1430.17,211.46,1423.67,199.88Z"/><path class="cls-1" d="M1540.22,307.39a81,81,0,0,1-31.88-31.87q-11.58-20.61-11.57-47.57t11.89-47.58a82.66,82.66,0,0,1,32.51-31.87q20.61-11.25,46-11.26t46,11.26a82.72,82.72,0,0,1,32.51,31.87Q1677.54,201,1677.54,228t-12.21,47.57a84.57,84.57,0,0,1-33,31.87q-20.77,11.26-46.47,11.26Q1560.52,318.65,1540.22,307.39Zm68.34-33.3a42.68,42.68,0,0,0,17-17.6q6.35-11.73,6.34-28.54,0-25-13.16-38.54a43.31,43.31,0,0,0-32.19-13.48q-19,0-31.87,13.48T1541.8,228q0,25.05,12.53,38.53T1585.88,280A46.12,46.12,0,0,0,1608.56,274.09Z"/><path class="cls-1" d="M1807.25,315.8l-36.15-54.55-32,54.55h-47.57l57.4-88.17-58-87.53H1741l35.83,54.23,32.35-54.23h47.57L1799,227.63l58.36,88.17Z"/><path class="cls-2" d="M226,212.49v147.6a14.8,14.8,0,0,1-21.85,13L82.61,307.21a38.18,38.18,0,0,1-20-33.55V140.78a28.18,28.18,0,0,1,2.19-11c1-2.49,2.38-4.94,3.7-5.6C71.47,122.72,226,212.49,226,212.49Z"/><path class="cls-3" d="M68.53,124.19,204.88,50a44.1,44.1,0,0,1,43.34.67L359.84,116a14.78,14.78,0,0,1-.54,25.82L226,212.49"/></svg>
